static/dist/images/icons/unread.svg

<?xml version="1.0" encoding="utf-8"?>
<!-- Generator: Adobe Illustrator 18.1.0, SVG Export Plug-In . SVG Version: 6.00 Build 0)  -->
<!DOCTYPE svg PUBLIC "-//W3C//DTD SVG 1.1//EN" "http://www.w3.org/Graphics/SVG/1.1/DTD/svg11.dtd">
<svg version="1.1" id="Unread" xmlns="http://www.w3.org/2000/svg" xmlns:xlink="http://www.w3.org/1999/xlink" x="0px" y="0px"
	 viewBox="0 0 20 20" enable-background="new 0 0 20 20" xml:space="preserve">
<path fill-rule="evenodd" clip-rule="evenodd" d="M17,3c-1.104,0-2,0.895-2,2c0,1.105,0.896,2,2,2s2-0.895,2-2
	C19,3.895,18.104,3,17,3z M12.5,4h-11C1.224,4,1,4.224,1,4.5v1C1,5.776,1.224,6,1.5,6h11C12.776,6,13,5.776,13,5.5v-1
	C13,4.224,12.776,4,12.5,4z M12.5,9h-11C1.224,9,1,9.224,1,9.5v1C1,10.776,1.224,11,1.5,11h11c0.276,0,0.5-0.224,0.5-0.5v-1
	C13,9.224,12.776,9,12.5,9z M12.5,14h-11C1.224,14,1,14.224,1,14.5v1C1,15.776,1.224,16,1.5,16h11c0.276,0,0.5-0.224,0.5-0.5v-1
	C13,14.224,12.776,14,12.5,14z"/>
</svg>

<svg xmlns="http://www.w3.org/2000/svg" viewBox="0 0 20 20"><path fill-rule="evenodd" clip-rule="evenodd" d="M17 3a2 2 0 1 0 0 4 2 2 0 0 0 0-4zm-4.5 1h-11a.5.5 0 0 0-.5.5v1a.5.5 0 0 0 .5.5h11a.5.5 0 0 0 .5-.5v-1a.5.5 0 0 0-.5-.5zm0 5h-11a.5.5 0 0 0-.5.5v1a.5.5 0 0 0 .5.5h11a.5.5 0 0 0 .5-.5v-1a.5.5 0 0 0-.5-.5zm0 5h-11a.5.5 0 0 0-.5.5v1a.5.5 0 0 0 .5.5h11a.5.5 0 0 0 .5-.5v-1a.5.5 0 0 0-.5-.5z"/></svg>
